X:8877
T:La Cinta'l Pelu (XA 36)
C:Tradicional
S:Música Tradicional Asturiana, (C) Tello & Tito. Asturies, 2001.
S:http://pagina.de/MusTradAst <telloytito@asturies.org>
A:Asturies
Z:Métodu de Xuacu Amieva 36
M:3/8
L:1/8
Q:3/8=69
K:Cm
|G>GG|A~GF|G3-|G3|G>GG|A~GF|GDE|FED|E~DC-|C3|
G>GG|A~GF|G3-|G3|G>GG|A~GF|GDE|FED|E~DC-|C2 G|
[K:C]
|: c3|A2 B|~AGE|A3|G2 A|~GFG|B3|A2 B|~AGE|
|A3|G2 A|~GFD|G3|F2 G|~F E2-|[1 E2 G :|[2 E3|


